X:1
T:Draper's Maggot
T:Draper's Maggot
T:Three times
C:Three times
L:1/8
M:3/4
K:D
V:1 treble 
V:1
 A,2 | D2 DE FG | A2 d2 A2 | B2 BA G2 | A2 AG F2 | G2 GF E2 | F2 FE D2 | FG A2 A,2 | D4 A,2 | %9
 D2 DE FG | A2 d2 A2 | B2 BA G2 | A2 AG F2 | G2 GF E2 | F2 FE D2 | FG A2 A,2 | D4 A2 | d2 de fg | %18
 a2 ag f2 | g2 gf e2 | f4 e2 | fg a2 gf | ef g2 fe | de f3 e | d4 A2 | d2 de fg | a2 ag f2 | %27
 g2 gf e2 | f4 e2 | fg a2 gf | ef g2 fe | de f3 e | d4 || %33

